X: 15069
T: German, The
R: barndance
M: 4/4
K: Dmajor
G2 G>A B2 B2|c>Bc>d e2 e2|d<gg>e d>BG>B|A>BA>G (3EGE D>E|
G>FG>A B>GA>B|c2 (3Bcd (3ege d>e|d<gg>e (3ded G>B|A2 G2 G2:|
b2 B2 b2 a>g|f>^ef>g a>^ga>b|d'2 (3d'd'd' d'2 (3def|g>fg>a b2 d>g|
b2 (3bbb b2 a>g|f>^ef>g a2 d>a|d'2 d2 d'2 (3def|g2 b2 g2:|
D2 D>E F2 F2|G>FG<A B2 B2|A<dd>B A>FD>F|E2 E>F D>BA>F|
D2- D>E F>DE>F|G2- G>A B2 B>G|A<dd>B A>F (3DEF|(3EFE D2 D2:|
f>A (3AAA f2 e>d|c>Bc>d e>^de>f|a>A (3aaa a2 g>e|d>cd>e f>dA>d|
f2 (3fff f2 (3fed|c2 (3Bcd e2 (3efg|a2 (3AAA A2 (3ABc|d2 f2 d2:|

